X:691
T:Nuala's Jig 
C:Nigel Gatherer
Z:Nigel Gatherer
M:6/8
L:1/8
K:G
G2B dcA | AGF GBd | g3  d2B | cAG FED |
G2B dcA | AGF GBd | g3  afd | cAF G3 :|
B2e gfe | faf def | g3  d2B | cAG FED |
B2e gfe | faf def | g3  afd | cAF G3 :|
<end>
<start>
